X:3
T:Matathias Bold
M:4/4
L:1/4
Q:1/4=160
K:Amaj
%%MIDI program 1 71 % Clarinet
"^1"A, B, C D | E4 |A, B, C D | E4 |
w:Ma-ta-thi-as  bold, Five brave sons had he.
"^2"E A E E | E D C2|E A E E | E D C D|
w:E-le-a-zer eld-est son, Si-mon, John and Jo-na-than, And
"^3"E E E E | A,4 |E E E E | A,4 |
w:Ju-dah Ma-ca-bee, Ju-dah Ma-ca-bee.


